Front/img/common-section_sousmetier/illu-5.svg

<svg width="470" height="541" viewBox="0 0 470 541" fill="none" xmlns="http://www.w3.org/2000/svg">
<path d="M-0.199219 202.461H369.801C425.029 202.461 469.801 247.232 469.801 302.461V540.002H-0.199219V202.461Z" fill="#E1E1E1"/>
<path d="M126.066 162.631C163.199 160.019 189.361 188.096 197.801 202.461H-0.199219C6.72536 191.687 26.7418 172.556 51.4106 182.22C82.2467 194.299 79.65 165.896 126.066 162.631Z" fill="#E1E1E1"/>
<path d="M180.27 504.863C180.27 491.281 175.083 474.17 173.75 461.503L282.815 451.914C282.815 451.914 282.339 492.653 282.815 507.903C283.292 523.153 292.802 539.998 292.802 539.998L173.75 539.998C180.27 528.211 180.27 521.585 180.27 504.863Z" fill="#081B42"/>
<path d="M168.516 303.622C198.373 299.752 215.113 297.582 244.97 293.712L235.956 224.763L196.808 200.585L160.015 238.604L168.516 303.622Z" fill="#E9D694"/>
<path d="M166.226 245.934C166.226 245.934 168.837 259.379 169.308 269.504C169.779 279.628 165.537 288.114 175.082 302.618L240.717 294.273C240.717 294.273 245.326 285.82 241.57 274.98C237.814 264.139 237.31 266.7 237.88 254.011L166.226 245.934Z" fill="#C9B058"/>
<path d="M283.301 331.997C273.429 321.938 246.174 325.576 231.301 319.559C225.767 317.321 221.858 298.163 220.546 287.922C235.661 279.058 241.139 255.409 238.046 231.75C234.229 202.553 217.76 188.611 195.971 191.459C174.182 194.308 161.725 212.28 165.543 241.477C168.579 264.702 179.503 286.07 195.971 291.135C197.304 301.332 198.524 315.924 193.69 319.559C180.863 329.197 159.516 328.825 153.282 341.43C136.274 375.899 163.764 446.745 163.764 446.745L292.154 446.745C292.154 446.745 304.484 353.553 283.301 331.997Z" fill="#F4C7C3"/>
<path d="M231.303 319.563C228.637 318.534 224.889 310.714 221.794 296.188C211.19 301.996 202.953 301.172 196.844 299.064C197.384 311.611 196.206 317.646 193.664 319.563C180.838 329.201 157.216 322.406 149.803 338.341C136.252 361.387 160.359 446.748 160.359 446.748L308.778 446.748C308.778 446.748 304.993 353.106 283.803 331.497C273.931 321.438 246.203 325.576 231.303 319.563Z" fill="#081B42"/>
<path d="M148.801 458.91C143.801 455.166 140.801 442.06 140.301 440.5L290.301 440.5L297.301 467.959C192.801 474.824 151.717 461.094 148.801 458.91Z" fill="#081B42"/>
<path d="M270.137 366.809C270.137 366.809 280.246 382.263 281.17 392.28L282.095 402.297L280.461 401.794C280.461 401.794 279.992 393.054 279.467 389.982C278.942 386.911 274.513 374.501 270.137 366.809Z" fill="#0C2048"/>
<path d="M168.06 380.155C168.06 380.155 162.114 404.748 164.246 410.956L166.431 417.144L167.272 416.635C166.186 413.721 165.479 410.679 165.167 407.585C164.944 403.771 168.06 380.155 168.06 380.155Z" fill="#0C2048"/>
<path opacity="0.1" d="M232.981 237.205L236.489 264.032C239.05 253.468 239.578 242.512 238.046 231.749C237.266 225.593 235.778 219.548 233.613 213.734L196.188 197.787L165.89 243.924C166.018 244.899 166.145 245.874 166.393 246.82C174.23 243.632 194.066 233.105 197.508 207.353C197.508 207.353 210.64 229.616 232.981 237.205Z" fill="black"/>
<path d="M197.718 211.34C197.718 211.34 191.038 235.179 166.88 244.934L174.447 302.812L162.618 304.782C162.618 304.782 147.954 232.241 158.627 211.13C162.397 203.444 168.453 197.118 175.963 193.022C184.602 188.381 194.641 187.068 204.184 189.332C204.184 189.332 231.778 184.964 239.922 216.539C248.067 248.113 249.816 293.053 249.816 293.053L240.741 294.208C240.741 294.208 234.698 245.459 232.717 232.832C232.694 232.847 209.798 228.619 197.718 211.34Z" fill="#E9D694"/>
<path opacity="0.1" d="M202.883 292.961C206.783 293.3 210.711 292.787 214.393 291.456C214.393 291.456 209.606 297.771 202.883 292.961Z" fill="black"/>
<path d="M99.7988 422.5C94.9988 430.9 97.7988 443.333 99.7988 446.5C151.477 463.206 172.365 464.084 188.337 467.386L180.737 425.587C160.737 422.587 117.299 422.5 99.7988 422.5Z" fill="#081B42"/>
<path d="M111.301 482C116.467 482.167 128.801 484.1 136.801 490.5" stroke="#00181B"/>
<path d="M109.801 487.5C115.301 489.333 128.101 496.3 135.301 509.5" stroke="#00181B"/>
<path d="M62.315 461.806C61.3035 457.806 57.2629 448.877 49.1928 445.169" stroke="#00181B"/>
<path d="M58.3008 462.499C54.3008 459.333 44.2008 453.399 35.8008 454.999" stroke="#00181B"/>
<path d="M41.8008 471C28.6008 494.6 7.96745 502.5 -0.699219 503.5V540.5H92.8008C91.8008 530.667 90.4008 509.5 92.8008 503.5C95.8008 496 104.801 499 111.301 489C117.801 479 116.301 471 115.801 463.5C115.401 457.5 118.301 442.333 119.801 435.5C110.601 438.3 101.634 446 98.3008 449.5C92.3008 446.3 82.1341 444.167 77.8008 443.5V426C70.8008 431.5 58.3008 441.5 41.8008 471Z" fill="#E3A266"/>
<path d="M78.3008 457.5C80.3008 452.3 83.8008 447 85.3008 445L92.3008 446.5C88.7008 447.7 81.4674 454.333 78.3008 457.5Z" fill="#E1E1E1"/>
<path d="M78.3008 450C79.1008 448 80.9674 445.167 81.8008 444L78.3008 443.5V450Z" fill="#E1E1E1"/>
<path d="M89.3008 453.5L94.3008 447.5L97.8008 449C96.2008 449.4 91.4674 452.167 89.3008 453.5Z" fill="#E1E1E1"/>
<path d="M69.8008 500C82.2008 506.4 89.6341 518 91.8008 523V510.5C85.4008 503.7 74.4674 500.667 69.8008 500Z" fill="#FBC492"/>
<path d="M51.3008 511C32.5008 501 16.1341 499.5 10.3008 500L20.3008 494.5C34.7008 496.9 46.9674 506.5 51.3008 511Z" fill="#FBC492"/>
<path d="M256.302 453.5C268.302 448.5 286.802 455.833 297.802 459.999L305.802 464L299.802 466.5C292.302 464.333 275.402 459.499 267.802 457.5C258.302 455 251.802 464.5 249.302 464C246.802 463.5 245.36 458.058 256.302 453.5Z" fill="#D3662F"/>
<path d="M409.803 444.999C432.303 484.999 440.18 478.477 469.68 539.977C431.68 539.977 305.303 539.999 305.303 539.999C305.303 539.999 315.303 527.999 315.303 508.999C315.303 496.999 312.303 488.999 300.803 479.499C290.684 471.14 262.803 462.999 265.803 457.499C266.871 455.54 280.366 460.894 290.303 462.999C300.406 465.139 305.844 463.764 300.803 461.999C289.745 458.129 284.803 460.999 265.803 444.999C246.803 428.999 254.53 403.334 255.803 398.499C258.303 388.999 292.803 407.999 300.803 398.499C308.803 388.999 322.303 383.999 344.803 386.499C385.303 390.999 398.725 425.306 409.803 444.999Z" fill="white"/>
<path d="M259.301 404C257.701 405.6 254.634 410.333 253.301 412.5C253.467 410.167 254.001 404.7 254.801 401.5C255.801 397.5 256.301 395.5 261.301 395.5C266.301 395.5 267.13 398.027 266.801 400C266.301 403 265.301 405.5 260.801 409C259.918 409.686 257.301 411 256.801 411C256.301 411 255.801 410.5 257.801 409C259.801 407.5 261.301 402 259.301 404Z" fill="#00181B" stroke="black"/>
<path d="M336.801 498.5C331.601 501.3 319.967 503.334 314.801 504L313.801 520.5C364.801 516 418.841 487.753 427.341 471.753L417.806 458.309C397.806 481.809 363.967 489.667 353.301 494L356.301 497H349.301C349.801 501 356.301 504 353.301 504C350.901 504 346.634 502.334 344.801 501.5C342.801 505.1 336.134 504.5 333.301 506.5C335.301 503.3 336.467 499.834 336.801 498.5Z" fill="#00181B"/>
<path d="M322.301 438.877C325.901 435.069 328.134 426.039 328.801 422C327.301 427.5 321.801 439.8 311.801 445L307.801 446.5C309.467 447 314.001 447.8 318.801 447C316.967 450.575 313.101 458.48 312.301 461.5C311.301 465.275 311.801 473 319.801 477.5C319.301 477 318.301 475.5 318.301 473.5C324.801 478.024 341.201 483.664 354.801 470.036C349.301 474.796 341.301 477.392 331.801 475.229C324.201 473.498 320.301 467.872 319.301 465.275C318.101 467.353 318.801 469.314 319.301 470.036C316.301 467.872 315.801 463.112 317.301 458.784C318.501 455.322 322.467 446.378 324.301 442.339C322.301 443.032 317.801 444.07 315.801 444.503C316.467 444.215 318.701 442.686 322.301 438.877Z" fill="#E1E1E1"/>
<ellipse cx="313.301" cy="527" rx="4.5" ry="8" fill="#CDAE19"/>
<ellipse cx="311.301" cy="527" rx="4.5" ry="8" fill="#FFD300"/>
<path d="M128.801 118H468.801C468.801 106.937 458.349 84.8095 416.543 84.8095C342.349 84.8095 344.285 36 291.381 36C230.091 36 226.865 84.8095 188.156 84.8095C147.173 84.8095 128.801 102.381 128.801 118Z" fill="#E1E1E1"/>
<path d="M305.301 394L310.301 390.5L320.301 385.5C330.967 385.5 352.801 385.9 354.801 387.5C357.301 389.5 357.301 402 356.801 403.5C356.301 405 349.301 418 346.801 422.5C344.801 426.1 341.634 426.333 340.301 426C339.801 427.333 338.201 430.2 335.801 431C333.401 431.8 332.134 428.667 331.801 427C330.967 427.667 329.001 428.2 327.801 425C326.601 421.8 327.301 403 327.801 394C326.967 394.833 325.001 396.9 323.801 398.5C322.301 400.5 323.801 411 322.801 414.5C322.001 417.3 319.467 417.333 318.301 417L317.301 402.5L320.301 390.5C318.134 391 313.101 392.4 310.301 394C307.501 395.6 305.801 394.667 305.301 394Z" fill="#E1E1E1"/>
<path d="M329.357 374.5C331.801 374.5 331.596 376.831 336.301 375.5C338.096 375.5 340.256 378.228 343.4 377.163C347.329 375.832 348.336 380.696 350.301 381.361C352.266 382.027 354.9 383.358 355.555 386.687C356.21 390.015 355.555 399.335 353.59 402.663C351.625 405.991 348.351 413.314 345.731 418.639C343.635 422.9 341.801 422.19 341.146 421.302C340.273 423.743 337.872 428.491 335.252 427.959C332.632 427.426 333.287 423.299 333.942 421.302C333.069 423.077 330.929 425.962 329.357 423.299C327.392 419.971 326.001 403.773 326.001 400.445C326.001 397.116 326.146 392.664 326.801 390.667C327.456 388.67 324.118 392.678 322.808 395.341C321.498 398.003 321.498 401.997 321.498 405.991C321.498 409.985 320.843 414.645 318.223 414.645C315.603 414.645 314.948 395.341 316.913 392.678C317.484 391.904 318.6 390.044 319.945 387.795C316.305 388.394 313.278 389.956 310.434 390.667C306.875 391.556 305.541 388.684 308.21 387.556C310.878 386.428 316.216 382.693 318.223 382.693C319.133 382.693 321.271 382.408 323.411 382.08C325.91 378.071 328.362 374.5 329.357 374.5Z" fill="#F4C7C3"/>
<path d="M93.6663 422.893C96.5122 422.181 101.967 422.596 104.339 422.893C107.54 433.565 104.19 441.569 102.115 444.238C101.078 444.386 98.7356 444.949 97.6684 446.016C96.3343 447.35 95.445 452.687 94.5556 455.355C93.8525 457.464 92.7769 460.246 91.4429 463.359C89.6141 467.626 86.9961 467.806 86.5514 466.027C86.1067 464.248 88.7748 458.912 88.7748 457.133C88.7748 455.355 88.3301 450.018 87.4408 449.574C86.5514 449.129 80.7706 453.131 78.1025 454.465C75.4344 455.799 67.8748 470.918 64.3174 471.808C62.2467 472.325 61.2046 470.918 61.2046 470.029L59.8706 472.252C57.7118 475.707 54.7146 474.13 54.5422 472.407C54.4566 472.591 54.4048 472.598 54.5345 472.252C54.5345 472.304 54.5371 472.356 54.5422 472.407C54.7502 471.961 55.157 470.474 53.6451 470.474C51.5106 470.474 51.2735 467.954 51.4217 467.361L53.2004 463.359C51.0659 462.647 50.8288 460.987 50.977 460.246C53.6451 452.835 60.5821 437.212 66.9855 434.01C74.9897 430.008 90.1088 423.782 93.6663 422.893Z" fill="#F4C7C3"/>
</svg>

<svg xmlns="http://www.w3.org/2000/svg" fill="none" viewBox="0 0 470 541"><path fill="#E1E1E1" d="M-.2 202.461h370.001c55.228 0 100 44.771 100 100v237.541h-470V202.461zM126.066 162.631c37.133-2.612 63.295 25.465 71.735 39.83h-198c6.924-10.774 26.94-29.905 51.61-20.241 30.836 12.079 28.239-16.324 74.655-19.589z"/><path fill="#081B42" d="M180.27 504.863c0-13.582-5.187-30.693-6.52-43.36l109.065-9.589s-.476 40.739 0 55.989c.477 15.25 9.987 32.095 9.987 32.095H173.75c6.52-11.787 6.52-18.413 6.52-35.135z"/><path fill="#E9D694" d="M168.516 303.622l76.454-9.91-9.014-68.949-39.148-24.178-36.793 38.019 8.501 65.018z"/><path fill="#C9B058" d="M166.226 245.934s2.611 13.445 3.082 23.57c.471 10.124-3.771 18.61 5.774 33.114l65.635-8.345s4.609-8.453.853-19.293c-3.756-10.841-4.26-8.28-3.69-20.969l-71.654-8.077z"/><path fill="#F4C7C3" d="M283.301 331.997c-9.872-10.059-37.127-6.421-52-12.438-5.534-2.238-9.443-21.396-10.755-31.637 15.115-8.864 20.593-32.513 17.5-56.172-3.817-29.197-20.286-43.139-42.075-40.291-21.789 2.849-34.246 20.821-30.428 50.018 3.036 23.225 13.96 44.593 30.428 49.658 1.333 10.197 2.553 24.789-2.281 28.424-12.827 9.638-34.174 9.266-40.408 21.871-17.008 34.469 10.482 105.315 10.482 105.315h128.39s12.33-93.192-8.853-114.748z"/><path fill="#081B42" d="M231.303 319.563c-2.666-1.029-6.414-8.849-9.509-23.375-10.604 5.808-18.841 4.984-24.95 2.876.54 12.547-.638 18.582-3.18 20.499-12.826 9.638-36.448 2.843-43.861 18.778-13.551 23.046 10.556 108.407 10.556 108.407h148.419s-3.785-93.642-24.975-115.251c-9.872-10.059-37.6-5.921-52.5-11.934z"/><path fill="#081B42" d="M148.801 458.91c-5-3.744-8-16.85-8.5-18.41h150l7 27.459c-104.5 6.865-145.584-6.865-148.5-9.049z"/><path fill="#0C2048" d="M270.137 366.809s10.109 15.454 11.033 25.471l.925 10.017-1.634-.503s-.469-8.74-.994-11.812c-.525-3.071-4.954-15.481-9.33-23.173zM168.06 380.155s-5.946 24.593-3.814 30.801l2.185 6.188.841-.509a36.363 36.363 0 01-2.105-9.05c-.223-3.814 2.893-27.43 2.893-27.43z"/><path fill="#000" d="M232.981 237.205l3.508 26.827a85.741 85.741 0 001.557-32.283 80.69 80.69 0 00-4.433-18.015l-37.425-15.947-30.298 46.137c.128.975.255 1.95.503 2.896 7.837-3.188 27.673-13.715 31.115-39.467 0 0 13.132 22.263 35.473 29.852z" opacity=".1"/><path fill="#E9D694" d="M197.718 211.34s-6.68 23.839-30.838 33.594l7.567 57.878-11.829 1.97s-14.664-72.541-3.991-93.652a41.38 41.38 0 0117.336-18.108 40.079 40.079 0 0128.221-3.69s27.594-4.368 35.738 27.207c8.145 31.574 9.894 76.514 9.894 76.514l-9.075 1.155s-6.043-48.749-8.024-61.376c-.023.015-22.919-4.213-34.999-21.492z"/><path fill="#000" d="M202.883 292.961c3.9.339 7.828-.174 11.51-1.505 0 0-4.787 6.315-11.51 1.505z" opacity=".1"/><path fill="#081B42" d="M99.799 422.5c-4.8 8.4-2 20.833 0 24 51.678 16.706 72.566 17.584 88.538 20.886l-7.6-41.799c-20-3-63.438-3.087-80.938-3.087z"/><path stroke="#00181B" d="M111.301 482c5.166.167 17.5 2.1 25.5 8.5M109.801 487.5c5.5 1.833 18.3 8.8 25.5 22M62.315 461.806c-1.011-4-5.052-12.929-13.122-16.637M58.3 462.499c-4-3.166-14.1-9.1-22.5-7.5"/><path fill="#E3A266" d="M41.8 471C28.6 494.6 7.968 502.5-.7 503.5v37h93.5c-1-9.833-2.4-31 0-37 3-7.5 12.001-4.5 18.501-14.5 6.5-10 5-18 4.5-25.5-.4-6 2.5-21.167 4-28-9.2 2.8-18.167 10.5-21.5 14-6-3.2-16.167-5.333-20.5-6V426c-7 5.5-19.5 15.5-36 45z"/><path fill="#E1E1E1" d="M78.3 457.5c2-5.2 5.5-10.5 7-12.5l7 1.5c-3.6 1.2-10.833 7.833-14 11zM78.3 450c.8-2 2.667-4.833 3.5-6l-3.5-.5v6.5zM89.3 453.5l5-6 3.5 1.5c-1.6.4-6.333 3.167-8.5 4.5z"/><path fill="#FBC492" d="M69.8 500c12.4 6.4 19.834 18 22 23v-12.5c-6.4-6.8-17.333-9.833-22-10.5zM51.3 511c-18.8-10-35.166-11.5-41-11l10-5.5c14.4 2.4 26.667 12 31 16.5z"/><path fill="#D3662F" d="M256.302 453.5c12-5 30.5 2.333 41.5 6.499l8 4.001-6 2.5c-7.5-2.167-24.4-7.001-32-9-9.5-2.5-16 7-18.5 6.5s-3.942-5.942 7-10.5z"/><path fill="#fff" d="M409.803 444.999c22.5 40 30.377 33.478 59.877 94.978-38 0-164.377.022-164.377.022s10-12 10-31c0-12-3-20-14.5-29.5-10.119-8.359-38-16.5-35-22 1.068-1.959 14.563 3.395 24.5 5.5 10.103 2.14 15.541.765 10.5-1-11.058-3.87-16-1-35-17s-11.273-41.665-10-46.5c2.5-9.5 37 9.5 45 0s21.5-14.5 44-12c40.5 4.5 53.922 38.807 65 58.5z"/><path fill="#00181B" stroke="#000" d="M259.301 404c-1.6 1.6-4.667 6.333-6 8.5.166-2.333.7-7.8 1.5-11 1-4 1.5-6 6.5-6s5.829 2.527 5.5 4.5c-.5 3-1.5 5.5-6 9-.883.686-3.5 2-4 2s-1-.5 1-2 3.5-7 1.5-5z"/><path fill="#00181B" d="M336.801 498.5c-5.2 2.8-16.834 4.834-22 5.5l-1 16.5c51-4.5 105.04-32.747 113.54-48.747l-9.535-13.444c-20 23.5-53.839 31.358-64.505 35.691l3 3h-7c.5 4 7 7 4 7-2.4 0-6.667-1.666-8.5-2.5-2 3.6-8.667 3-11.5 5 2-3.2 3.166-6.666 3.5-8z"/><path fill="#E1E1E1" d="M322.301 438.877c3.6-3.808 5.833-12.838 6.5-16.877-1.5 5.5-7 17.8-17 23l-4 1.5c1.666.5 6.2 1.3 11 .5-1.834 3.575-5.7 11.48-6.5 14.5-1 3.775-.5 11.5 7.5 16-.5-.5-1.5-2-1.5-4 6.5 4.524 22.9 10.164 36.5-3.464-5.5 4.76-13.5 7.356-23 5.193-7.6-1.731-11.5-7.357-12.5-9.954-1.2 2.078-.5 4.039 0 4.761-3-2.164-3.5-6.924-2-11.252 1.2-3.462 5.166-12.406 7-16.445-2 .693-6.5 1.731-8.5 2.164.666-.288 2.9-1.817 6.5-5.626z"/><ellipse cx="313.301" cy="527" fill="#CDAE19" rx="4.5" ry="8"/><ellipse cx="311.301" cy="527" fill="#FFD300" rx="4.5" ry="8"/><path fill="#E1E1E1" d="M128.801 118h340c0-11.063-10.452-33.19-52.258-33.19-74.194 0-72.258-48.81-125.162-48.81-61.29 0-64.516 48.81-103.225 48.81-40.983 0-59.355 17.571-59.355 33.19zM305.301 394l5-3.5 10-5c10.666 0 32.5.4 34.5 2 2.5 2 2.5 14.5 2 16s-7.5 14.5-10 19c-2 3.6-5.167 3.833-6.5 3.5-.5 1.333-2.1 4.2-4.5 5-2.4.8-3.667-2.333-4-4-.834.667-2.8 1.2-4-2-1.2-3.2-.5-22 0-31-.834.833-2.8 2.9-4 4.5-1.5 2 0 12.5-1 16-.8 2.8-3.334 2.833-4.5 2.5l-1-14.5 3-12c-2.167.5-7.2 1.9-10 3.5s-4.5.667-5 0z"/><path fill="#F4C7C3" d="M329.357 374.5c2.444 0 2.239 2.331 6.944 1 1.795 0 3.955 2.728 7.099 1.663 3.929-1.331 4.936 3.533 6.901 4.198 1.965.666 4.599 1.997 5.254 5.326.655 3.328 0 12.648-1.965 15.976-1.965 3.328-5.239 10.651-7.859 15.976-2.096 4.261-3.93 3.551-4.585 2.663-.873 2.441-3.274 7.189-5.894 6.657-2.62-.533-1.965-4.66-1.31-6.657-.873 1.775-3.013 4.66-4.585 1.997-1.965-3.328-3.356-19.526-3.356-22.854 0-3.329.145-7.781.8-9.778.655-1.997-2.683 2.011-3.993 4.674-1.31 2.662-1.31 6.656-1.31 10.65 0 3.994-.655 8.654-3.275 8.654s-3.275-19.304-1.31-21.967c.571-.774 1.687-2.634 3.032-4.883-3.64.599-6.667 2.161-9.511 2.872-3.559.889-4.893-1.983-2.224-3.111 2.668-1.128 8.006-4.863 10.013-4.863.91 0 3.048-.285 5.188-.613 2.499-4.009 4.951-7.58 5.946-7.58zM93.666 422.893c2.846-.712 8.301-.297 10.673 0 3.201 10.672-.149 18.676-2.224 21.345-1.037.148-3.38.711-4.447 1.778-1.334 1.334-2.223 6.671-3.112 9.339-.703 2.109-1.78 4.891-3.113 8.004-1.829 4.267-4.447 4.447-4.892 2.668-.444-1.779 2.224-7.115 2.224-8.894 0-1.778-.445-7.115-1.334-7.559-.89-.445-6.67 3.557-9.338 4.891-2.669 1.334-10.228 16.453-13.786 17.343-2.07.517-3.112-.89-3.112-1.779l-1.334 2.223c-2.16 3.455-5.156 1.878-5.329.155-.085.184-.137.191-.008-.155 0 .052.003.104.008.155.208-.446.615-1.933-.897-1.933-2.134 0-2.372-2.52-2.223-3.113l1.778-4.002c-2.134-.712-2.371-2.372-2.223-3.113 2.668-7.411 9.605-23.034 16.009-26.236 8.004-4.002 23.123-10.228 26.68-11.117z"/></svg>
